P3
# SubAquatica original 8x8 pixel anglerfish. Black is transparent.
8 8
255
0 0 0  0 0 0  0 0 0  255 232 110  0 0 0  0 0 0  0 0 0  0 0 0
0 0 0  0 0 0  117 230 170  0 0 0  0 0 0  0 0 0  0 0 0  0 0 0
0 0 0  40 122 120  40 122 120  40 122 120  117 230 170  0 0 0  0 0 0  0 0 0
0 0 0  40 122 120  255 255 255  40 122 120  40 122 120  40 122 120  0 0 0  0 0 0
0 0 0  40 122 120  40 122 120  40 122 120  255 238 200  40 122 120  0 0 0  0 0 0
0 0 0  0 0 0  40 122 120  40 122 120  40 122 120  0 0 0  0 0 0  0 0 0
0 0 0  0 0 0  0 0 0  40 122 120  0 0 0  0 0 0  0 0 0  0 0 0
0 0 0  0 0 0  0 0 0  40 122 120  0 0 0  0 0 0  0 0 0  0 0 0
