P3
# SubAquatica original 8x8 pixel diver. Black is transparent.
8 8
255
0 0 0  0 0 0  54 96 126  54 96 126  54 96 126  54 96 126  0 0 0  0 0 0
0 0 0  112 220 240  112 220 240  17 42 72  17 42 72  112 220 240  112 220 240  0 0 0
0 0 0  112 220 240  17 42 72  17 42 72  17 42 72  17 42 72  112 220 240  0 0 0
0 0 0  0 0 0  112 220 240  32 156 180  32 156 180  112 220 240  0 0 0  0 0 0
0 0 0  180 94 54  180 94 54  32 156 180  32 156 180  180 94 54  180 94 54  0 0 0
0 0 0  0 0 0  32 156 180  32 156 180  32 156 180  32 156 180  0 0 0  0 0 0
0 0 0  0 0 0  38 72 96  0 0 0  0 0 0  38 72 96  0 0 0  0 0 0
0 0 0  38 72 96  38 72 96  0 0 0  0 0 0  38 72 96  38 72 96  0 0 0
